src/assets/ui/cross_cursor_black.svg

<svg height="141" viewBox="0 0 129 141" width="129" xmlns="http://www.w3.org/2000/svg" xmlns:xlink="http://www.w3.org/1999/xlink"><mask id="a" fill="#fff"><path d="m129 117.5-43-47 43-47-21.5-23.5-43 47-43-47-21.5 23.5 43 47-43 47 21.5 23.5 43-47 43 47z" fill="#fff" fill-rule="evenodd"/></mask><path d="m-32.1865127 131.439282v.895861h190.2741287v-.895861zm0 8.436583v.895861h190.2741287v-.895861zm0 8.436583v.895861h190.2741287v-.895861zm0-25.309749v.895862h190.2741287v-.895862zm0-8.436582v.895861h190.2741287v-.895861zm0-8.436583v.895861h190.2741287v-.895861zm0-8.4365828v.8958613h190.2741287v-.8958613zm0-8.4365828v.8958613h190.2741287v-.8958613zm0-8.4365827v.8958613h190.2741287v-.8958613zm0-8.4365828v.8958613h190.2741287v-.8958613zm0-8.4365827v.8958613h190.2741287v-.8958613zm0-8.4365828v.8958613h190.2741287v-.8958613zm0-8.4365827v.8958613h190.2741287v-.8958613zm0-8.4365827v.8958612h190.2741287v-.8958612zm0-8.4365828v.8958613h190.2741287v-.8958613zm0-8.4365827v.8958613h190.2741287v-.8958613zm0-8.4365828v.8958613h190.2741287v-.8958613zm0-8.43658273v.89586129h190.2741287v-.89586129zm0-8.43658275v.89586129h190.2741287v-.89586129zm0-8.43658272v.8958613h190.2741287v-.8958613zm0-8.4365828v.8958613h190.2741287v-.8958613z" fill="none" mask="url(#a)" stroke="#121212" transform="matrix(.96592583 .25881905 -.25881905 .96592583 18.811524 -14.098611)"/></svg>

<?xml version="1.0" encoding="UTF-8"?>
<svg width="129px" height="141px" viewBox="0 0 129 141" version="1.1" xmlns="http://www.w3.org/2000/svg" xmlns:xlink="http://www.w3.org/1999/xlink">
    <!-- Generator: Sketch 52.4 (67378) - http://www.bohemiancoding.com/sketch -->
    <title>Combined Shape</title>
    <desc>Created with Sketch.</desc>
    <defs>
        <polygon id="path-1" points="129 117.5 86 70.5 129 23.5 107.5 0 64.5 47 21.5 0 0 23.5 43 70.5 0 117.5 21.5 141 64.5 94 107.5 141"></polygon>
    </defs>
    <g id="website" stroke="none" stroke-width="1" fill="none" fill-rule="evenodd">
        <g id="menu_yellow" transform="translate(-1216.000000, -525.000000)">
            <g id="super-bold-down" transform="translate(1216.000000, 525.000000)">
                <g id="Combined-Shape">
                    <g>
                        <mask id="mask-2" fill="white">
                            <use xlink:href="#path-1"></use>
                        </mask>
                        <g id="Mask"></g>
                        <path d="M-32.1865127,131.439282 L-32.1865127,132.335143 L158.087616,132.335143 L158.087616,131.439282 L-32.1865127,131.439282 Z M-32.1865127,139.875865 L-32.1865127,140.771726 L158.087616,140.771726 L158.087616,139.875865 L-32.1865127,139.875865 Z M-32.1865127,148.312448 L-32.1865127,149.208309 L158.087616,149.208309 L158.087616,148.312448 L-32.1865127,148.312448 Z M-32.1865127,123.002699 L-32.1865127,123.898561 L158.087616,123.898561 L158.087616,123.002699 L-32.1865127,123.002699 Z M-32.1865127,114.566117 L-32.1865127,115.461978 L158.087616,115.461978 L158.087616,114.566117 L-32.1865127,114.566117 Z M-32.1865127,106.129534 L-32.1865127,107.025395 L158.087616,107.025395 L158.087616,106.129534 L-32.1865127,106.129534 Z M-32.1865127,97.6929512 L-32.1865127,98.5888125 L158.087616,98.5888125 L158.087616,97.6929512 L-32.1865127,97.6929512 Z M-32.1865127,89.2563684 L-32.1865127,90.1522297 L158.087616,90.1522297 L158.087616,89.2563684 L-32.1865127,89.2563684 Z M-32.1865127,80.8197857 L-32.1865127,81.715647 L158.087616,81.715647 L158.087616,80.8197857 L-32.1865127,80.8197857 Z M-32.1865127,72.3832029 L-32.1865127,73.2790642 L158.087616,73.2790642 L158.087616,72.3832029 L-32.1865127,72.3832029 Z M-32.1865127,63.9466202 L-32.1865127,64.8424815 L158.087616,64.8424815 L158.087616,63.9466202 L-32.1865127,63.9466202 Z M-32.1865127,55.5100374 L-32.1865127,56.4058987 L158.087616,56.4058987 L158.087616,55.5100374 L-32.1865127,55.5100374 Z M-32.1865127,47.0734547 L-32.1865127,47.969316 L158.087616,47.969316 L158.087616,47.0734547 L-32.1865127,47.0734547 Z M-32.1865127,38.636872 L-32.1865127,39.5327332 L158.087616,39.5327332 L158.087616,38.636872 L-32.1865127,38.636872 Z M-32.1865127,30.2002892 L-32.1865127,31.0961505 L158.087616,31.0961505 L158.087616,30.2002892 L-32.1865127,30.2002892 Z M-32.1865127,21.7637065 L-32.1865127,22.6595678 L158.087616,22.6595678 L158.087616,21.7637065 L-32.1865127,21.7637065 Z M-32.1865127,13.3271237 L-32.1865127,14.222985 L158.087616,14.222985 L158.087616,13.3271237 L-32.1865127,13.3271237 Z M-32.1865127,4.89054097 L-32.1865127,5.78640226 L158.087616,5.78640226 L158.087616,4.89054097 L-32.1865127,4.89054097 Z M-32.1865127,-3.54604178 L-32.1865127,-2.65018049 L158.087616,-2.65018049 L158.087616,-3.54604178 L-32.1865127,-3.54604178 Z M-32.1865127,-11.9826245 L-32.1865127,-11.0867632 L158.087616,-11.0867632 L158.087616,-11.9826245 L-32.1865127,-11.9826245 Z M-32.1865127,-20.4192073 L-32.1865127,-19.523346 L158.087616,-19.523346 L158.087616,-20.4192073 L-32.1865127,-20.4192073 Z" stroke="#121212" mask="url(#mask-2)" transform="translate(62.950552, 64.394551) rotate(-345.000000) translate(-62.950552, -64.394551) "></path>
                    </g>
                </g>
            </g>
        </g>
    </g>
</svg>
